X:1
T:Title
%%score { 1 | ( 2 3 ) }
L:1/8
M:3/4
K:Eb
V:1 treble nm="Grand Piano"
V:2 bass 
V:3 bass 
V:1
 z2 z2[Q:1/4=100] GG | G3 F cc | c2 B2 BB | e3 B [FA][EG] |[M:2/4] [EG]2 F2 |[M:1/4] GG | %6
[M:3/4] G3 F cc | c2 B2 [GB][_Gc] | d3 B =Ac |[M:2/4] B4 |[M:1/4] cB |[M:3/4] [Ge]3 [GB] [FA]G | %12
 G2 F2 FF | c3 c de |[M:2/4] d4 |[M:1/4] cB |[M:3/4] [Be]3 [Be] [Bf][EBe] | %17
 [EBd]2 [EAc]2 [CGB][CFA] | [EG]3 [EG] [DA][DF] |[M:2/4] E4 |] %20
V:2
 z2 z2 [E,B,E][E,B,E] | [E,A,D]3 [E,A,D] [E,A,D][E,A,D] | [E,G,E]2 [E,G,E]2 [E,G,E][F,A,D] | %3
 [G,B,E]3 [G,B,E] [D,B,][E,B,] |[M:2/4] z2 D2 |[M:1/4] [E,B,E][E,B,E] | %6
[M:3/4] [E,=A,C]3 [E,A,C] [E,_A,D][E,A,D] | [E,G,E]2 [E,G,E]2 [E,B,][E,B,] | %8
 [F,B,F]3 [F,DF] [F,CF][F,EF] |[M:2/4] [B,DF]4 |[M:1/4] [B,DA][B,DA] | %11
[M:3/4][K:bass] [E,B,]3 [E,E] [E,B,][E,B,E] | [A,CE]2[K:treble] [A,CE]2 [A,CE][A,CE] | %13
 [A,EF]3 [A,EF] [F,A,F][F,A,F] |[M:2/4] [B,F]4 |[M:1/4] [A,DF][A,DF] | %16
[M:3/4][K:bass] [G,E]3 [G,E] [G,E]G, | A,2 A,2 A,,A,, | [B,,B,]3 [B,,B,] [B,,F,][B,,A,] | %19
[M:2/4] [E,G,]4 |] %20
V:3
 x6 | x6 | x6 | x6 |[M:2/4] [B,,B,]4 |[M:1/4] x2 |[M:3/4] x6 | x6 | x6 |[M:2/4] x4 |[M:1/4] x2 | %11
[M:3/4][K:bass] x6 | x2[K:treble] x4 | x6 |[M:2/4] x4 |[M:1/4] x2 |[M:3/4][K:bass] x6 | x6 | x6 | %19
[M:2/4] x4 |] %20

